X:1
T:Title
%%score ( 1 2 ) { 3 | 4 }
L:1/8
Q:1/4=140
M:6/4
K:C
V:1 treble nm="Grand Piano, Soprano"
V:2 treble 
V:3 treble nm="Choir Pad, Deeper Love for Thee"
V:4 bass 
V:1
 [CE]4 [DF]2 [EG]4 [Gc]2 | [Ac]2 [GB]2 [FA]2 [EG]6 | [CE]4 [DF]2 [FA]2 [EG]2 [CE]2 | %3
w: By~William~Howard~Doane * * *|||
 [CE]6 .[B,D]6 | [CE]4 [DF]2 [EG]4 [Gc]2 | [Ac]2 [GB]2 [FA]2 [Fc]6 | [EG]4 [Ec]2 B2 A2 [FB]2 | %7
w: ||||
 [Ec]6- [Ec]3- [Ec]/ z/ [Ec]2 | [Fd]6 [FG]6 | [FB]2 [FA]2 [FG]2 [Ec]4 [EG]2 | [Ge]6 [Gc]6 | %11
w: ||||
 [Gc]2 [FB]2 [Ec]2 .[Gd]6 | [Ge]2 [Fd]2 [Ec]2 [GB]4 [FA]2 | [Ac]2 [GB]2 [FA]2 [FA]4 [EG]2 | %14
w: |||
 F2 [EG]2 [FA]2 G4 [Gc]2 | [FB]2 [FA]2 [FB]2 [Ec]6- | [Ec]6 z6 |] %17
w: |||
V:2
 x12 | x12 | x12 | x12 | x12 | x12 | z6 .F6 | x12 | x12 | x12 | x12 | x12 | x12 | x12 | x12 | x12 | %16
 x12 |] %17
V:3
 G,4 G,2 C4 C2 | C4 C2 C6 | G,4 G,2 C4 G,2 | G,12 | G,4 G,2[K:treble] C4 C2 | C4 C2 A,6 | %6
 C4[K:bass] G,2 G,4 G,2 | G,6- G,3- G,/ z/ G,2 | B,6 B,6 | D2 C2 B,2 C4 C2 | C6 E6 | %11
 E2 D2 C2 .B,6 | C2 C2 C2 C4 C2 | C2 C2 C2 C4 C2 | C2 C2 C2 C4 E2 | D2 C2 D2 C6- | C6 z6 |] %17
V:4
 C,4 C,2 C,4 E,2 | F,4 F,2 C,6 | C,4 C,2 C,4 C,2 | G,,12 | C,4 C,2 C,4 E,2 | F,4 F,2 F,6 | %6
 .G,6 G,,4 G,,2 | C,6- C,3- C,/ z/ C,2 | G,6 G,6 | G,2 G,2 G,2 C,4 C,2 | C,6 C,6 | %11
 G,2 G,2 G,2 .G,6 | C,2 C,2 C,2 F,4 F,2 | F,2 F,2 F,2 C,4 C,2 | A,2 G,2 F,2 E,4 C,2 | %15
 G,2 G,2 G,2 C,6- | C,6 z6 |] %17

